X:163
T: THAELCHEN SANFT DICH NEIGEND
N: F0296
O: Europa, Mitteleuropa, Deutschland
R: Jugend - Lied, Belehrung, Moral; Natur
M: 2/4
L: 1/16
K: E
 | B2B2B2F2 | G2E2E2z2 |
B2B2B2F2 | G2E2E2z2 |
F2F2GABG | F6z2 |
A2A2F2F2 | B4G4 |
A2A2F2F2 | B6G2 |
E2F2GAF2 | E6z2

@@@ Tune index: 5594
